X:1
T:Title
%%score ( 1 2 ) 3
L:1/8
Q:1/4=100
M:2/4
K:Bb
V:1 treble nm="Grand Piano, Soprano"
V:2 treble 
V:3 bass nm="Choir Pad, Bandung, arr from Romberg"
V:1
 [DF]2 [DF][DB] | [Fd]3 [Ec] | [DB][FA] [EG][DF] | [DF]3 [DF] | z2 .B2 | [Fd]2 [FB]2 | [Fc]3 [DF] | %7
w: By~Arranged~from~Romberg,~1840 * *|||||||
 z2 .B2 | [Fd]3 [Ec] | [DB][FA] [EG][DF] | [DF]3 [FB] | [Ff]2 f/e/d/c/ | z2 A2 | [DB]4- | [DB]4 |] %15
w: ||||||||
V:2
 x4 | x4 | x4 | x4 | [DF]2 F-[Fc] | x4 | x4 | [DF]2 D-[Dc] | x4 | x4 | x4 | z2 G2 | [DB]2 CE | x4 | %14
 x4 |] %15
V:3
 B,,2 B,,B,, | B,,3 B,, | B,,2 B,,2 | B,,3 B, | B,2 B,2 | B,2 D,2 | F,3 B,, | B,,2 B,,2 | %8
 B,,3 B,, | B,2 B,,2 | B,,3 B,, | D,2 E,2 | F,2 F,2 | [B,,D,]4- | [B,,D,]4 |] %15

